!!!!SEGMENT: pl-wtm--a-43-185-99--001-001_fitelberg-grzegorz--piec-piesni-op-21-no-1-na-wybrzezu-zasypia-swiat.krn
!!!cenid: 19xx:91
!!!COM: Fitelberg, Grzegorz
!!!COM-rismID: pe41023683
!!!CDT: 1879-1953
!!!CNT: Polish
!!!GTL: Pięć pieśni Op. 21
!!!OTL: No. 1. Na wybrzeżu/Zasypia świat
!!!OMV: 001
!!!PDT:
!!!AGN: Secular; Song
!!!YEC: Copyright 2022 Narodowy Instytut Fryderyka Chopina (https://polishscores.org)
!!!YEM: License CC-BY-4.0 (https://creativecommons.org/licenses/by/4.0)
!!!SMS-siglum: PL-Wtm
!!!SMS-shelfmark: A.43.185/99
!!!SMS-variant:
!!!SMS-altvar:
!!!SMS-shelfwork: 001-001 G
!!!NIFC-rismSourceID: 1001162746
!!!NIFC-rismChildID: 1001162746
!!!NIFC-islandoraID: pl-wtm:43141
!!!URL-pdf-islandora: https://repozytorium.nifc.pl/islandora/object/pl-wtm%3A43141/datastream/PDF/view
!!!URL-scan: https://polish.musicsources.pl/pl/lokalizacje/galeria/druki-muzyczne/22420/3 @EN{Scan on Polish Music Sources Website} @PL{Skany w portalu Dziedzictwo Muzyki Polskiej w otwartym dostępie}
!!!IIIF:
!!!ONB-nifc:
!!!AIN: 1 piano 1 vox
!!!key: C
**kern	**kern	**dynam	**kern	**text	**text	**dynam
*part2	*part2	*part2	*part1	*part1	*part1	*part1
*staff3	*staff2	*	*staff1	*staff1	*staff1	*
*I"Klavier.	*I"Klavier.	*	*I"Singstimme.	*	*	*
*I'[pf]	*I'[pf]	*	*I'[V]	*	*	*
*ICklav	*ICklav	*	*ICvox	*	*	*
*Ipiano	*Ipiano	*	*Ivox	*	*	*
*clefF4	*clefG2	*	*clefG2	*	*	*
*k[]	*k[]	*	*k[]	*	*	*
*C:	*C:	*	*C:	*	*	*
*M4/4	*M4/4	*	*M4/4	*	*	*
!	!	!	!LO:TX:a:B:t=Grave.	!	!	!
2r;	[<2B-X;/ [2b-X	sfzp >	2r;	.	.	.
=1	=1	=1	=1	=1	=1	=1
*	*^	*	*	*	*	*
4r	2.B-/] 2.b-]	4r	]	4r	.	.	.
!	!	!	!	!	!	!	!LO:DY:a
!	!	!	!	!	!	!	!LO:DY:a
(4BBB-X/ 4BB-X	.	(>4F/ 4d-X 4f	pp <	4f/	Die	Za-	p <
4DD-X/ 4D-X	.	4A-X/ 4f-X 4a-X	[[	4a-X/	Welt	-sy-	.
!	!	!	!	!	!	!	!LO:DY:a
4FF-X/) 4F-X	4ryy	4B-X/) 4e-- 4a--	> ]]	4a--/	ver-	-pia	[ > ]]
=2	=2	=2	=2	=2	=2	=2	=2
1GG-X~ 1D-X 1G-X	2r	1B-X~ 1d-X 1g-X	mp	2g-X/	-stummt,	świat,	.
.	[<2B-X/ [2b-X	.	sfzp >	2r	.	.	.
=3	=3	=3	=3	=3	=3	=3	=3
4r	2.B-/] 2.b-]	4r	.	4r	.	.	.
!	!	!	!	!	!	!	!LO:DY:a
(4BBB-X/ 4BB-X	.	(>4F/ 4d-X 4f	] pp <	4f/	dein	lecz	<
4DD-X/ 4D-X	.	4A-X/ 4f-X 4a-X	.	4a-X/	Blut	czu-	.
!	!	!	!	!	!	!	!LO:DY:a
4FF-X/) 4F-X	4ryy	4B-X/) 4e-- 4a--	[ >	4a--/	er	-wa	[ >
!!LO:LB:g=original	!	!	!	!	!	!	!
=4	=4	=4	=4	=4	=4	=4	=4
1GG-X~ 1D-X 1G-X	2r	1B-X 1d-X 1g-X	] mp	2g-X/	klingt;	duch;	]
.	[<2B-X/ [2b-X	.	sfzp >	2r	.	.	.
*	*v	*v	*	*	*	*	*
=5	=5	=5	=5	=5	=5	=5
*M5/4	*M5/4	*	*M5/4	*	*	*
*	*^	*	*	*	*	*
4r	2.B-/] 2.b-]	4r	.	4r	.	.	.
!	!	!LO:TX:t=P:problem: dotted vertical line	!	!	!	!	!
(4BBB-X/ 4BB-X	.	(>4F/ 4d-X 4f	] pp <	4r	.	.	.
!	!	!	!	!	!	!	!LO:DY:a
4DD-X/ 4D-X	.	4A-X/ 4f-X 4a-X	.	4a-X/	in	zstę-	<
4FF-X/ 4F-X	2ryy	4B--/ 4d- 4b--	.	4an/	sei-	-pu-	.
4GG-X/) 4G-X	.	4cn/) 4f-X 4b--	.	4a/	-nen	-je	[
*	*v	*v	*	*	*	*	*
=6	=6	=6	=6	=6	=6	=6
*M4/4	*M4/4	*	*M4/4	*	*	*
!	!	!	!LO:TX:a:t=poco	!	!	!LO:DY:a
2AA-X~\ 2E-X 2A-X	2c/ 2e-X 2a-X	[ mf > ]]	2.cc\	hel-	w ja-	mf
(4CC/ 4C	(>4G/ 4e- 4g	p <	.	.	.	.
!	!	!	!	!	!	!LO:HP:a
4EE-X/ 4E-X	4B-X/ 4g-X 4b-X	.	4cc\	-len	-sną	>
=7	=7	=7	=7	=7	=7	=7
*	*^	*	*	*	*	*
2GG-X/) 2G-X	2c-X/) 2cc-X	(>4e-X\	[ >	4cc-X\	Ab-	o-	.
.	.	4e--\)	.	4g-X/	-grund	-tchłań	]
!	!	!	!LO:DY:b	!	!	!	!LO:HP:a
!	!	!	!LO:HP:a	!	!	!	!
([2CC-X/ [2C-X	(>4F/ 4d-X 4f	2ryy	] pp <	4f/	sinkt	swą	<
*	*	*	*^	*	*	*	*
!	!LO:TX:b:Bi:t=cresc._ :problem:dynamics with line extensions	!	!	!LO:HP:a	!	!	!	!
.	4F#X/ 4dn 4f#X	.	.	<	4f#X/	der	da-	.
*	*	*	*v	*v	*	*	*	*
*	*v	*v	*	*	*	*	*
!!LO:LB:g=original	!	!	!	!	!	!
=8	=8	=8	=8	=8	=8	=8
!	!	!LO:HP:b=2	!	!	!	!
4CC-/]) 4C-]	2An/) 2fn 2an	[ <	4.an/	fer-	-le-	[[
4CCn/ 4Cn	.	.	.	.	.	.
.	.	.	8fn/	-ne	-ki	.
[2DDn/ [2Dn	(>4G#X/ 4en 4g#X	[	2c/	Tag,	dzień,	.
!	!LO:TX:a:Bi:t=stringendo_:problem: with line extensions	!	!	!	!	!
!	!LO:TX:a:i:t=stringendo_	!	!	!	!	!
.	4A/ 4f 4a	.	.	.	.	.
=9	=9	=9	=9	=9	=9	=9
!	!	!LO:HP:b=2	!	!	!	!
4DD/] 4D]	2c/) 2a-X 2cc	<	2r	.	.	.
4EE-X/ 4E-X	.	.	.	.	.	.
!	!	!LO:HP:a	!	!	!	!
([2FF/ [2F	(4Bn/ 4g 4bn	[ <	4r	.	.	.
!	!	!	!	!	!	!LO:HP:a
.	4c/ 4a- 4cc	[[	4cc\	er	bez	<[
=10	=10	=10	=10	=10	=10	=10
*	*^	*	*	*	*	*
*	*	*	*^	*	*	*	*
!	!	!	!	!	!LO:TX:a:Bi:t=rit._:problem: with line extensions	!	!	!LO:DY:a
!	!	!	!	!LO:HP:b=2	!LO:TX:a:i:t=rit._	!	!	!LO:DY:a
4FF/] 4F]	2.e-X/ 2.ee-X	1cc-X	] ff >	<	[1ee-X	schau-	trwo-	ff > ]]
2.GG-X/) 2.G-X	.	.	.	.	.	.	.	.
!	!LO:TX:a:Bi:t=rit._:problem: with line extensions	!	!	!	!	!	!	!
!	!LO:TX:a:i:t=rit._	!	!	!	!	!	!	!
.	4en/ 4een	.	]	[	.	.	.	.
*	*	*	*v	*v	*	*	*	*
*	*v	*v	*	*	*	*	*
=11	=11	=11	=11	=11	=11	=11
!	!	!	!	!	!	!LO:DY:a
1GGGn~ 1GGn	1f~) 1bn 1ff	[ pp >	2ee-\]	.	.	p >
.	.	.	2dd\	-dert	-żny	.
!!LO:PB:g=original	!	!	!	!	!	!
=12	=12	=12	=12	=12	=12	=12
!	!	!	!LO:TX:i:a:t=Tempo	!	!	!
4r	4r	.	2.cc\	nicht;	dzień.	]
(8..CC/L 8..C	(>4G/ 4e-X 4g	] pp <	.	.	.	.
32DD/Jkk 32D	.	.	.	.	.	.
8..EE-X/L 8..E-X	4B-X/ 4g-X 4b-X	[ >	.	.	.	.
32FF/Jkk 32F	.	.	.	.	.	.
4GG-X/) 4G-X	4cn/) 4f-X 4b--	]]	4r	.	.	.
=13	=13	=13	=13	=13	=13	=13
*	*^	*	*	*	*	*
1AA-X~ 1E-X 1A-X	2r	1c~ 1e-X 1a-X	mp	1r	.	.	.
.	[<2c/ [2cc	.	sfzp >	.	.	.	.
*	*v	*v	*	*	*	*	*
=14	=14	=14	=14	=14	=14	=14
*M3/2	*M3/2	*	*M3/2	*	*	*
*	*^	*	*	*	*	*
4r	1c] 1cc]	4r	]	4r	.	.	.
!	!	!	!	!	!	!	!LO:DY:a
!	!	!	!	!	!	!	!LO:HP:a
(8..CC/L 8..C	.	(>4G/ 4e-X 4g	pp <	4g/	die	Pur-	p <
32DD/Jkk 32D	.	.	.	.	.	.	.
4..EE-X/ 4..E-X	.	4An/ [4g-X 4an	.	4an/	Glut	-pu-	.
.	.	4B-X/ 4g-] 4b-X	.	4b-X\	im-	-rą	.
16FF/ 16F	.	.	.	.	.	.	.
4GG-X/ 4G-X	2ryy	4c-X/ 4e-X 4cc-X	.	4cc-X\	-schlingt	go-	.
4AA-X/) 4A-X	.	4dn/) 4g-X 4cc-	[[	4cc-\	das	-re	[[
*	*v	*v	*	*	*	*	*
!!LO:LB:g=original	!	!	!	!	!	!
=15	=15	=15	=15	=15	=15	=15
*M5/4	*M5/4	*	*M5/4	*	*	*
!	!	!	!	!	!	!LO:DY:a:t=poco f
!	!	!	!	!	!	!LO:HP:a
2BB-X~\ 2F 2B-X	2d~>/ 2f 2b-X	mf >	4.ddn\	höch-	lą-	f >
!	!	!	!LO:TX:a:t=P:problem:dotted vertical line	!	!	!
.	.	.	8b-X\	-ste	-du	.
(8..DD/L 8..D	(>4A/ 4f 4a	] p <	4f/	Land,	wyż,	]
32EEn/Jkk 32En	.	.	.	.	.	.
4..FF/ 4..F	4Bn/ [4a-X 4bn	.	4r	.	.	.
.	4c/ 4a-] 4cc	[[	4cc\	im	a	.
16GGn/ 16Gn	.	.	.	.	.	.
=16	=16	=16	=16	=16	=16	=16
*M4/4	*M4/4	*	*M4/4	*	*	*
*	*^	*	*	*	*	*
2AA-X/) 2A-X	2d-X/) 2dd-X	(>4f\	>	4dd-X\	Mee-	z mo-	.
!	!	!	!	!	!	!	!LO:HP:a
.	.	4e\)	]]	4a-X/	-re	-rza	<
*	*	*	*^	*	*	*	*
!	!	!	!LO:DY:b	!	!	!	!	!
!	!LO:TX:b:Bi:t=cresc._ :problem:dynamics with line extensions	!	!LO:HP:a	!LO:HP:a:t=cresc._	!	!	!	!
([2DD-X/ [2D-X	(>4G/ 4e-X 4g	2ryy	pp <	<	4g/	ringt	wsta-	.
.	4G#X/ 4en 4g#X	.	.	.	4a-/	die	-je	[[
*	*v	*v	*	*	*	*	*	*
=17	=17	=17	=17	=17	=17	=17	=17
!	!	!LO:HP:b=2	!	!	!	!	!
4DD-/] 4D-]	2Bn/) 2gn 2bn	[ <	.	4.bn\	fer-	cie-	.
4DDn/) 4Dn	.	.	.	.	.	.	.
.	.	[	.	8g/	-ne	-mna	.
!	!LO:TX:a:Bi:t=stringendo_:problem: with line extensions	!LO:HP:a	!	!	!	!	!
!	!LO:TX:a:i:t=stringendo_	!	!	!	!	!	!
([2EEn/ [2En	(>4A#X/ 4f#X 4a#X	<	.	2dn/	Nacht,	noc,	.
.	4B/ 4g 4b	[[	.	.	.	.	.
*	*	*v	*v	*	*	*	*
=18	=18	=18	=18	=18	=18	=18
!	!	!LO:HP:b=2	!	!	!	!
4EE/] 4E]	2d/) 2b-X 2dd	<	2r	.	.	.
4FF/) 4F	.	.	.	.	.	.
!	!	!LO:HP:a	!	!	!	!
([2GG/ [2G	(>4c#X/ 4a 4cc#X	[ <	4r	.	.	.
!	!	!	!	!	!	!LO:DY:a
.	4d/) 4b- 4dd	.	4dd\	sie	bez	f <
!!LO:LB:g=original	!	!	!	!	!	!
=19	=19	=19	=19	=19	=19	=19
*	*^	*	*	*	*	*
*	*	*	*^	*	*	*	*
!	!	!	!LO:DY:b	!	!LO:TX:a:Bi:t=rit._:problem: with line extensions	!	!	!LO:DY:a
!	!	!	!LO:HP:b	!LO:HP:b=2	!LO:TX:a:i:t=rit._	!	!	!LO:HP:a
4GG/] 4G]	(2.f/ 2.ff	1dd-X	[ ff >	<	[1ff	zau-	trwo-	[ ff > ]]
2.AA-X/) 2.A-X	.	.	.	.	.	.	.	.
!	!LO:TX:a:Bi:t=rit._:problem: with line extensions	!	!	!	!	!	!	!
!	!LO:TX:a:i:t=rit._	!	!	!	!	!	!	!
.	4f#X/ 4ff#X	.	.	[	.	.	.	.
*	*	*	*v	*v	*	*	*	*
*	*v	*v	*	*	*	*	*
=20	=20	=20	=20	=20	=20	=20
!	!	!	!	!	!	!LO:DY:a
!	!	!	!	!	!	!LO:HP:a
1AAAn~ 1AAn	1g~) 1cc#X 1gg	] pp	2ff\]	.	.	p >
.	.	.	2ee\	-dert	-żna	]]
=21	=21	=21	=21	=21	=21	=21
!	!LO:TX:a:i:t=Tempo	!	!LO:TX:a:i:t=Tempo	!	!	!
4r	4r	.	2.dd\	nicht;	noc;	.
(4DD/ 4D	(>4A/ 4f 4a	pp <	.	.	.	.
8.EEn/L 8.En	4c/ 4a-X 4cc	.	.	.	.	.
32FF/LL 32F	.	.	.	.	.	.
32GG/JJJ 32G	.	.	.	.	.	.
4AA-X/) 4A-X	4dn/) 4g-X 4cc-X	[ > ]]	4r	.	.	.
=22	=22	=22	=22	=22	=22	=22
*	*^	*	*	*	*	*
1BB-X~ 1F 1B-X	2r	1d~ 1f 1b-X	mp	1r	.	.	.
.	[<2d/ [2dd	.	sfzp >	.	.	.	.
*	*v	*v	*	*	*	*	*
=23	=23	=23	=23	=23	=23	=23
*M3/2	*M3/2	*	*M3/2	*	*	*
*	*^	*	*	*	*	*
4r	1d] 1dd]	4r	]	4r	.	.	.
!	!	!	!	!	!	!	!LO:DY:a
!	!	!	!	!	!	!	!LO:HP:a
(<8.DD/L 8.D	.	(>4A/ 4f 4a	pp <	4a/	der	na	p <
32DD#X/LL 32D#X	.	.	.	.	.	.	.
32EE/JJJ 32E	.	.	.	.	.	.	.
[4FF/ [4F	.	4Bn/ [4a-X 4bn	.	4bn\	Flut	fa-	.
8.FF/L] 8.F]	.	4c/ 4a-] 4cc	.	4cc\	ent-	.	.
32GG-X/LL 32G-X	.	.	.	.	.	.	.
32GGn/JJJ 32Gn	.	.	.	.	.	.	.
4AA-X/ 4A-X	2ryy	4d-X/ 4f 4dd-X	.	4dd-X\	-springt	-li	.
4BB-X\) 4B-X	.	4en/) 4a-X 4dd-	[[	4dd-\	ein	drży	[[
!!LO:LB:g=original	!	!	!	!	!	!	!
=24	=24	=24	=24	=24	=24	=24	=24
!	!	!	!	!	!	!	!LO:HP:a
1C~ 1G 1c	1e~> 1g 1cc	1ryy	mf	4.een\	Stern-	gwiazd-	>
.	.	.	.	8cc\	-chen,	-ka,	]]
.	.	.	.	1r	.	.	.
*	*	*Xbrackettup	*	*	*	*	*
!	!	!LO:TUP:a	!	!	!	!	!
2ryy	2ryy	6c^^<\	.	.	.	.	.
.	.	6g^^<\	.	.	.	.	.
.	.	6cc^^<\	.	.	.	.	.
*	*v	*v	*	*	*	*	*
=25	=25	=25	=25	=25	=25	=25
*yyM4/4	*yyM4/4	*	*yyM4/4	*	*	*
*	*^	*	*	*	*	*
!	!	!	!	!LO:TX:t=P:problem:brak nowego metrum 4/4	!	!	!
4r	1ee^^	4r	.	2r	.	.	.
2.BB-X~\ 2.En 2.A-X	.	2.d-X~<\ 2.en 2.a-X 2.dd-X	mf >	.	.	.	.
!	!	!	!	!	!	!	!LO:DY:a
.	.	.	.	4a-X/	dei-	chło-	p
.	.	.	.	4a-/	-ne	-nie	.
*	*v	*v	*	*	*	*	*
=26	=26	=26	=26	=26	=26	=26
2C~\ 2E 2G	2c~>/ 2e 2g 2cc	] p	4.g/	See-	du-	.
.	.	.	8c/	-le	-sza	.
2B-X>\ 2en> 2a-X>	2dd-X/ 2een 2aa-X 2ddd-X	mf > ]]	[2e/	trinkt	twa	.
=27	=27	=27	=27	=27	=27	=27
[1c> [1e> [1g>	[1cc~ [1ee [1gg [1ccc	p	4e/]	.	.	.
.	.	.	4r	.	.	.
.	.	.	4r	.	.	.
!	!	!	!	!	!	!LO:DY:a
.	.	.	4g/	das	świe-	p
=28	=28	=28	=28	=28	=28	=28
1c>] 1e>] 1g>]	1cc] 1ee] 1gg] 1ccc]	.	3c/	e-	-tla-	.
.	.	.	3g/	-wi-	.	.
.	.	.	3cc\	-ge	-ny	.
=29	=29	=29	=29	=29	=29	=29
!	!	!	!	!	!	!LO:DY:a
4r>	4r	.	1ee;	Licht.	blask.	>]
2.c>~;<\ 2.g> 2.cc>	2.ee~;/ 2.ccc 2.eee	p	.	.	.	.
==	==	==	==	==	==	==
*-	*-	*-	*-	*-	*-	*-
!!!system-decoration: s1{(s2,s3)}
!!!RDF**kern: > = above
!!!RDF**kern: < = below
!!!ENC: Andrzej Gręziak
!!!END: 2023-10-03
!!!EED: Jan Barakat
!!!EEV: 2023-10-23
